src/animals-nature/plant-other/1F33F.svg

<svg id="emoji" viewBox="0 0 72 72" xmlns="http://www.w3.org/2000/svg">
  <g id="grid">
    <path fill="#b3b3b3" d="M68,4V68H4V4H68m4-4H0V72H72V0Z"/>
    <path fill="none" stroke="#00a5ff" stroke-miterlimit="10" stroke-width="0.1" d="M12.923,10.9583H59.0769A1.9231,1.9231,0,0,1,61,12.8814V59.0352a1.9231,1.9231,0,0,1-1.9231,1.9231H12.9231A1.9231,1.9231,0,0,1,11,59.0352V12.8813A1.923,1.923,0,0,1,12.923,10.9583Z"/>
    <rect x="16" y="4" rx="2.2537" width="40" height="64" fill="none" stroke="#00a5ff" stroke-miterlimit="10" stroke-width="0.1"/>
    <rect x="16" y="4" rx="2.2537" width="40" height="64" transform="translate(72) rotate(90)" fill="none" stroke="#00a5ff" stroke-miterlimit="10" stroke-width="0.1"/>
    <circle cx="36" cy="36" r="29" fill="none" stroke="#00a5ff" stroke-miterlimit="10" stroke-width="0.1"/>
  </g>
  <g id="color">
    <path fill="#B1CC33" stroke="none" d="M36.8349,18.0781c1.7393,1.6583,1.6481,4.5775,1.6481,4.5775s-2.9114,0.2303-4.651-1.428 c-1.7396-1.6582-1.6481-4.5775-1.6481-4.5775S35.0958,16.4213,36.8349,18.0781z"/>
    <path fill="#5C9E31" stroke="none" d="M42.0884,54.3627c-4.6114,1.465-9.3345-1.6943-9.3345-1.6943s2.7546-5.5346,7.3663-7.0003 s9.3345,1.6943,9.3345,1.6943S46.6971,52.8966,42.0884,54.3627z"/>
    <path fill="#B1CC33" stroke="none" d="M49.0484,35.6919c-3.6542,1.0489-7.2941-1.5366-7.2941-1.5366s2.2856-4.2862,5.9401-5.3357 s7.2941,1.5366,7.2941,1.5366S52.7005,34.642,49.0484,35.6919z"/>
    <path fill="#5C9E31" stroke="none" d="M27.0179,32.1509c3.0883,2.3003,3.5096,6.9616,3.5096,6.9616s-4.5864,0.9311-7.6753-1.3691 c-3.0889-2.3002-3.5096-6.9616-3.5096-6.9616S23.9302,29.8529,27.0179,32.1509z"/>
  </g>
  <g id="hair"/>
  <g id="skin"/>
  <g id="skin-shadow"/>
  <g id="line">
    <path fill="none" stroke="#000000" stroke-linecap="round" stroke-linejoin="round" stroke-width="2" d="M36.8349,18.0781 c1.7393,1.6583,1.6481,4.5775,1.6481,4.5775s-2.9114,0.2303-4.651-1.428c-1.7396-1.6582-1.6481-4.5775-1.6481-4.5775 S35.0958,16.4213,36.8349,18.0781z"/>
    <path fill="none" stroke="#000000" stroke-linecap="round" stroke-linejoin="round" stroke-width="2" d="M27.0179,32.1509 c3.0883,2.3003,3.5096,6.9616,3.5096,6.9616s-4.5864,0.9311-7.6753-1.3691c-3.0889-2.3002-3.5096-6.9616-3.5096-6.9616 S23.9302,29.8529,27.0179,32.1509z"/>
    <path fill="none" stroke="#000000" stroke-linecap="round" stroke-linejoin="round" stroke-width="2" d="M42.0884,54.3627 c-4.6114,1.465-9.3345-1.6943-9.3345-1.6943s2.7546-5.5346,7.3663-7.0003s9.3345,1.6943,9.3345,1.6943 S46.6971,52.8966,42.0884,54.3627z"/>
    <path fill="none" stroke="#000000" stroke-linecap="round" stroke-linejoin="round" stroke-width="2" d="M49.0484,35.6919 c-3.6542,1.0489-7.2941-1.5366-7.2941-1.5366s2.2856-4.2862,5.9401-5.3357s7.2941,1.5366,7.2941,1.5366 S52.7005,34.642,49.0484,35.6919z"/>
    <path fill="none" stroke="#000000" stroke-linecap="round" stroke-linejoin="round" stroke-width="2" d="M39.9046,25.7818 c0,4.7785-2.8879,10.0608-4.8815,13.1378c-0.8136,1.2558-1.7383,2.4273-2.7031,3.5711c-2.5753,3.0534-5.2237,8.2176-3.876,15.8715"/>
  </g>
</svg>

<svg viewBox="0 0 72 72" xmlns="http://www.w3.org/2000/svg"><path fill="#b3b3b3" d="M68 4v64H4V4h64m4-4H0v72h72V0z"/><path fill="none" stroke="#00a5ff" stroke-miterlimit="10" stroke-width=".1" d="M12.923 10.958h46.154A1.923 1.923 0 0161 12.881v46.154a1.923 1.923 0 01-1.923 1.923H12.923A1.923 1.923 0 0111 59.035V12.881a1.923 1.923 0 011.923-1.923z"/><rect x="16" y="4" rx="2.254" width="40" height="64" fill="none" stroke="#00a5ff" stroke-miterlimit="10" stroke-width=".1"/><rect x="16" y="4" rx="2.254" width="40" height="64" transform="rotate(90 36 36)" fill="none" stroke="#00a5ff" stroke-miterlimit="10" stroke-width=".1"/><circle cx="36" cy="36" r="29" fill="none" stroke="#00a5ff" stroke-miterlimit="10" stroke-width=".1"/><path d="M36.835 18.078c1.74 1.658 1.648 4.578 1.648 4.578s-2.911.23-4.651-1.428c-1.74-1.659-1.648-4.578-1.648-4.578s2.912-.229 4.65 1.428zM27.018 32.15c3.088 2.301 3.51 6.963 3.51 6.963s-4.587.93-7.676-1.37c-3.089-2.3-3.51-6.961-3.51-6.961s4.588-.93 7.676 1.369zm15.07 22.213c-4.611 1.465-9.334-1.695-9.334-1.695s2.755-5.534 7.366-7 9.335 1.694 9.335 1.694-2.758 5.535-7.367 7zm6.96-18.671c-3.654 1.049-7.294-1.537-7.294-1.537s2.286-4.286 5.94-5.335 7.294 1.536 7.294 1.536-2.288 4.286-5.94 5.336zm-9.143-9.91c0 4.778-2.888 10.06-4.882 13.138-.814 1.255-1.738 2.427-2.703 3.57-2.575 3.054-5.224 8.218-3.876 15.872" stroke-linecap="round" stroke-miterlimit="10" stroke-width="6" stroke="#fff" fill="none" stroke-linejoin="round"/><path fill="#B1CC33" d="M36.835 18.078c1.74 1.658 1.648 4.578 1.648 4.578s-2.911.23-4.651-1.428c-1.74-1.659-1.648-4.578-1.648-4.578s2.912-.229 4.65 1.428z"/><path fill="#5C9E31" d="M42.088 54.363c-4.611 1.465-9.334-1.695-9.334-1.695s2.755-5.534 7.366-7 9.335 1.694 9.335 1.694-2.758 5.535-7.367 7z"/><path fill="#B1CC33" d="M49.048 35.692c-3.654 1.049-7.294-1.537-7.294-1.537s2.286-4.286 5.94-5.335 7.294 1.536 7.294 1.536-2.288 4.286-5.94 5.336z"/><path fill="#5C9E31" d="M27.018 32.15c3.088 2.301 3.51 6.963 3.51 6.963s-4.587.93-7.676-1.37c-3.089-2.3-3.51-6.961-3.51-6.961s4.588-.93 7.676 1.369z"/><path d="M36.835 18.078c1.74 1.658 1.648 4.578 1.648 4.578s-2.911.23-4.651-1.428c-1.74-1.659-1.648-4.578-1.648-4.578s2.912-.229 4.65 1.428zM27.018 32.15c3.088 2.301 3.51 6.963 3.51 6.963s-4.587.93-7.676-1.37c-3.089-2.3-3.51-6.961-3.51-6.961s4.588-.93 7.676 1.369zm15.07 22.213c-4.611 1.465-9.334-1.695-9.334-1.695s2.755-5.534 7.366-7 9.335 1.694 9.335 1.694-2.758 5.535-7.367 7zm6.96-18.671c-3.654 1.049-7.294-1.537-7.294-1.537s2.286-4.286 5.94-5.335 7.294 1.536 7.294 1.536-2.288 4.286-5.94 5.336zm-9.143-9.91c0 4.778-2.888 10.06-4.882 13.138-.814 1.255-1.738 2.427-2.703 3.57-2.575 3.054-5.224 8.218-3.876 15.872" fill="none" stroke="#000" stroke-linecap="round" stroke-linejoin="round" stroke-width="2"/></svg>
